public/train-bullets/4.svg

<?xml version="1.0" standalone="no"?>
<!DOCTYPE svg PUBLIC "-//W3C//DTD SVG 1.1//EN" "http://www.w3.org/Graphics/SVG/1.1/DTD/svg11.dtd">
<svg width="100%" height="100%" viewBox="0 0 90 90" version="1.1" xmlns="http://www.w3.org/2000/svg" xmlns:xlink="http://www.w3.org/1999/xlink" xml:space="preserve" style="fill-rule:evenodd;clip-rule:evenodd;stroke-linejoin:round;stroke-miterlimit:1.41421;">
    <g id="4">
        <circle cx="45" cy="45" r="45" style="fill:rgb(0,147,59);"/>
        <path d="M61.3249,58.8346L55.9863,58.8346L55.9863,68.9909L46.9043,68.9909L46.9043,58.8346L28.2194,58.8346L28.2194,50.7292L45.5697,22.0833L55.9863,22.0833L55.9863,51.5755L61.3249,51.5755L61.3249,58.8346ZM46.9043,51.5755L46.9043,31.1979L35.0879,51.5755L46.9043,51.5755Z" style="fill:white;fill-rule:nonzero;"/>
    </g>
</svg>

<svg xmlns="http://www.w3.org/2000/svg" xml:space="preserve" style="fill-rule:evenodd;clip-rule:evenodd;stroke-linejoin:round;stroke-miterlimit:1.41421" viewBox="0 0 90 90"><circle cx="45" cy="45" r="45" style="fill:#00933b"/><path d="M61.325 58.835h-5.339V68.99h-9.082V58.835H28.22v-8.106l17.35-28.646h10.417v29.493h5.339zm-14.42-7.26V31.199L35.087 51.575z" style="fill:#fff;fill-rule:nonzero"/></svg>
